icons/log-in.svg

<svg width="24" height="24" viewBox="0 0 24 24" fill="none" xmlns="http://www.w3.org/2000/svg">
<path fill-rule="evenodd" clip-rule="evenodd" d="M4 3C4 2.44772 4.44772 2 5 2H19C19.5523 2 20 2.44772 20 3V21C20 21.5523 19.5523 22 19 22H5C4.44772 22 4 21.5523 4 21V16C4 15.4477 4.44772 15 5 15C5.55228 15 6 15.4477 6 16V20H18V4H6V8C6 8.55228 5.55228 9 5 9C4.44772 9 4 8.55228 4 8V3ZM9.29289 7.29289C9.68342 6.90237 10.3166 6.90237 10.7071 7.29289L14.7071 11.2929C15.0976 11.6834 15.0976 12.3166 14.7071 12.7071L10.7071 16.7071C10.3166 17.0976 9.68342 17.0976 9.29289 16.7071C8.90237 16.3166 8.90237 15.6834 9.29289 15.2929L11.5858 13H3C2.44772 13 2 12.5523 2 12C2 11.4477 2.44772 11 3 11H11.5858L9.29289 8.70711C8.90237 8.31658 8.90237 7.68342 9.29289 7.29289Z" fill="black"/>
</svg>

<svg
  width="24"
  height="24"
  viewBox="0 0 24 24"
  xmlns="http://www.w3.org/2000/svg"
>
  <path
    fill-rule="evenodd"
    clip-rule="evenodd"
    d="M4 3a1 1 0 0 1 1-1h14a1 1 0 0 1 1 1v18a1 1 0 0 1-1 1H5a1 1 0 0 1-1-1v-5a1 1 0 1 1 2 0v4h12V4H6v4a1 1 0 0 1-2 0V3zm5.293 4.293a1 1 0 0 1 1.414 0l4 4a1 1 0 0 1 0 1.414l-4 4a1 1 0 0 1-1.414-1.414L11.586 13H3a1 1 0 1 1 0-2h8.586L9.293 8.707a1 1 0 0 1 0-1.414z"
  />
</svg>
